X:11
T:RIVAL -- REEL., THE
R:reel
B:Coles pg. 30.3
Z:John B. Walsh, 5/8/2002 <walsh:mat:h.ubc.ca>
M:2/4
L:1/16
K:G
uD2|GDGB dGBd|gfed cBAG|ABcd "4"ecAG|GF"4"AF D2(EF)|
GDGB dGBd|gfed cBAG|ABcd "4"ecAF|G2G2G2:|
u(FG)|"0"ADFD "0"ADFD|cDBD "0"A2(GA)|BDGD BDGD|dDcD B2D2|
GDGB dGBd|gfed cBAG|ABcd "4"ecAF|G2G2G2:|
